badges/C C++.svg

<svg height="24" viewBox="0 0 82 24" width="82" xmlns="http://www.w3.org/2000/svg" xmlns:xlink="http://www.w3.org/1999/xlink"><linearGradient id="a" x1="0" x2="1" y1="0" y2="1"><stop offset="0" stop-color="#09b1ff"/><stop offset="1" stop-color="#1548c0"/></linearGradient><clipPath id="b"><path d="m0 0h16v16h-16z"/></clipPath><path d="m5.999 0h70.002q.1473 0 .2944.00722606.147.00722604.2936.02166074.1466.0144347.2922.0360433.1457.0216086.2901.0503389.1445.02873.2873.064513.1429.035783.2838.078533.1409.042749.2796.092362.1387.049613.2747.10597.1361.056356.2692.119321.1331.062965.263.132386.1299.069422.2562.145132.1263.07571.2487.157524.1225.08182.2408.16955.1183.08772.2321.18115.1139.09343.223.19232.1091.0989.2132.20304.1041.10413.2031.21325.0989.10912.1923.22295.0934.11384.1811.23213.0878.11829.1696.24073.0818.12245.1575.24877.0757.12631.1451.25619.0695.12988.1324.26301.063.13312.1193.26918.0564.13606.106.27472.0496.13866.0924.27958.0427.14093.0785.28378.0358.14286.0645.28729.0288.14444.0504.29011.0216.14568.036.29224.0144.14655.0217.29364.0072.14709.0072.29436v12.002q0 .1473-.0072.2944-.0073.147-.0217.2936-.0144.1466-.036.2922-.0216.1457-.0504.2901-.0287.1445-.0645.2873-.0358.1429-.0785.2838-.0428.1409-.0924.2796-.0496.1387-.106.2747-.0563.1361-.1193.2692-.0629.1331-.1324.263-.0694.1299-.1451.2562-.0757.1263-.1575.2488-.0818.1224-.1696.2407-.0877.1183-.1811.2321-.0934.1139-.1923.223-.0989.1091-.2031.2132-.1041.1042-.2132.2031-.1091.0989-.223.1923-.1138.0934-.2321.1811-.1183.0878-.2407.1696-.1225.0818-.2488.1575-.1263.0757-.2562.1451-.1299.0695-.263.1324-.1331.063-.2692.1193-.136.0564-.2747.106-.1387.0496-.2796.0924-.1409.0427-.2838.0785-.1428.0358-.2873.0645-.1444.0288-.2901.0504-.1456.0216-.2922.036-.1466.0144-.2936.0217-.1471.0072-.2944.0072h-70.002q-.14727 0-.29436-.0072-.14709-.0073-.29364-.0217-.14656-.0144-.29224-.036-.14567-.0216-.29011-.0504-.14443-.0287-.28729-.0645-.14285-.0358-.28378-.0785-.14092-.0428-.27958-.0924-.13866-.0496-.27472-.106-.13606-.0563-.26918-.1193-.13313-.0629-.26301-.1324-.12988-.0694-.25619-.1451-.12632-.0757-.24877-.1575-.12244-.0818-.24073-.1696-.11829-.0877-.23213-.1811-.11383-.0934-.22295-.1923-.10912-.0989-.21325-.2031-.10414-.1041-.20304-.2132-.09889-.1091-.19232-.223-.09342-.1138-.18115-.2321-.08773-.1183-.16955-.2407-.081814-.1225-.157524-.2488-.07571-.1263-.145132-.2562-.069421-.1299-.132386-.263-.062965-.1331-.119321-.2692-.056357-.136-.10597-.2747-.049613-.1387-.092362-.2796-.04275-.1409-.078533-.2838-.035783-.1428-.064513-.2873-.0287303-.1444-.0503389-.2901-.0216086-.1456-.0360433-.2922-.0144347-.1466-.02166074-.2936-.00722606-.1471-.00722606-.2944v-12.002q0-.14727.00722606-.29436.00722604-.14709.02166074-.29364.0144347-.14656.0360433-.29224.0216086-.14567.0503389-.29011.02873-.14443.064513-.28729.035783-.14285.078533-.28378.042749-.14092.092362-.27958.049613-.13866.10597-.27472.056356-.13606.119321-.26918.062965-.13313.132386-.26301.069422-.12988.145132-.25619.07571-.12632.157524-.24877.08182-.12244.16955-.24073.08772-.11829.18115-.23213.09343-.11383.19232-.22295.0989-.10912.20304-.21325.10413-.10414.21325-.20304.10912-.09889.22295-.19232.11384-.09342.23213-.18115.11829-.08773.24073-.16955.12245-.081814.24877-.157524.12631-.07571.25619-.145132.12988-.069421.26301-.132386.13312-.062965.26918-.119321.13606-.056357.27472-.10597.13866-.049613.27958-.092362.14093-.04275.28378-.078533.14286-.035783.28729-.064513.14444-.0287303.29011-.0503389.14568-.0216086.29224-.0360433.14655-.0144347.29364-.02166074.14709-.00722606.29436-.00722606z" fill="url(#a)" fill-rule="evenodd"/><path d="m5.999 2h30.002q.1965 0 .392.01926.1955.01925.3882.05758.1927.03833.3806.09536.188.05702.3695.13221.1815.07518.3548.16779.1733.09261.3366.20175.1634.10915.3152.23378.1519.12463.2908.26355.1389.13892.2636.29078.1246.15187.2337.31521.1092.16335.2018.33661.0926.17327.1678.35477.0752.1815.1322.3695.057.188.0954.38068.0383.19269.0575.3882.0193.19551.0193.39197v12.002q0 .1965-.0193.392-.0192.1955-.0575.3882-.0384.1927-.0954.3806-.057.188-.1322.3696-.0752.1815-.1678.3547-.0926.1733-.2018.3366-.1091.1634-.2337.3152-.1247.1519-.2636.2908-.1389.1389-.2908.2636-.1518.1246-.3152.2337-.1633.1092-.3366.2018-.1733.0926-.3548.1678-.1815.0752-.3695.1322-.1879.057-.3806.0954-.1927.0383-.3882.0575-.1955.0193-.392.0193h-30.002q-.19646 0-.39197-.0193-.19551-.0192-.3882-.0575-.19268-.0384-.38068-.0954-.188-.057-.3695-.1322-.1815-.0752-.35477-.1678-.17326-.0926-.33661-.2018-.16334-.1091-.31521-.2337-.15186-.1247-.29078-.2636-.13892-.1389-.26355-.2908-.12463-.1518-.23378-.3152-.10914-.1633-.20175-.3366-.09261-.1732-.16779-.3547-.07519-.1816-.13221-.3696-.05703-.1879-.09536-.3806-.03833-.1927-.05758-.3882-.01926-.1955-.01926-.392v-12.002q0-.19646.01926-.39197.01925-.19551.05758-.3882.03833-.19268.09536-.38068.05702-.188.13221-.3695.07518-.1815.16779-.35477.09261-.17326.20175-.33661.10915-.16334.23378-.31521.12463-.15186.26355-.29078.13892-.13892.29078-.26355.15187-.12463.31521-.23378.16335-.10914.33661-.20175.17327-.09261.35477-.16779.1815-.07519.3695-.13221.188-.05703.38068-.09536.19269-.03833.3882-.05758.19551-.01926.39197-.01926z" fill="#fff" fill-rule="evenodd"/><path d="m6.83949 4.72869h-1.10796q-.13494-.70667-.66228-1.08487-.52735-.3782-1.22337-.3782-.625 0-1.12216.31606-.49716.31605-.78302.92507-.28587.60902-.28587 1.49325 0 .88778.28764 1.49858.28764.6108.78303.9233.49538.3125 1.11683.3125.68892 0 1.21804-.37287.52912-.37287.67116-1.0689l1.10796.00355q-.11719.71733-.52557 1.26776-.40838.55043-1.04403.86115-.63566.31073-1.43466.31073-.94461 0-1.68324-.44922-.73864-.44922-1.162999-1.28729-.42436-.83807-.42436-1.99929 0-1.16477.426136-2.00106.426133-.8363 1.164773-1.28552.73864-.44922 1.67969-.44922.77059 0 1.40447.2912.63388.29119 1.05469.84339.42081.5522.5451 1.3299zm11.77201 0h1.108q-.1243-.7777-.5451-1.3299-.4208-.5522-1.0547-.84339-.6339-.2912-1.4045-.2912-.9411 0-1.6797.44922-.7386.44922-1.1648 1.28552-.4261.83629-.4261 2.00106 0 1.16122.4244 1.99929.4243.83807 1.163 1.28729.7386.44922 1.6832.44922.799 0 1.4347-.31073.6356-.31072 1.044-.86115.4084-.55043.5256-1.26776l-1.108-.00355q-.142.69603-.6712 1.0689-.5291.37287-1.218.37287-.6214 0-1.1168-.3125-.4954-.3125-.7831-.9233-.2876-.6108-.2876-1.49858 0-.88423.2859-1.49325.2858-.60902.783-.92507.4972-.31606 1.1222-.31606.696 0 1.2233.3782.5274.3782.6623 1.08487zm4.4744 4.44603v-1.92472h-1.9211v-.95526h1.9211v-1.92116h.9553v1.92116h1.9247v.95526h-1.9247v1.92472zm6.6584-1.92472v1.92472h.9553v-1.92472h1.9247v-.95526h-1.9247v-1.92116h-.9553v1.92116h-1.9211v.95526zm-20.29473 1.39205-.05326.38707q-.05327.42614-.17756.88956-.12429.46342-.25923.86112-.13495.3978-.22017.6321h-.75284q.04971-.2201.12961-.5948.0799-.3746.15803-.83628.07812-.46164.11719-.94105l.03551-.39772z" fill="#fff" transform="translate(44 6)"/><g transform="translate(4 4)"><path d="m0 0h16v16h-16z" fill="none"/><g clip-path="url(#b)" fill-rule="evenodd"><path d="m7.63442 1.09525c.22633-.127.50499-.127.731 0 1.11833.62767 4.48368 2.517 5.60228 3.14467.2264.12666.3657.36133.3657.61533v6.28895c0 .254-.1393.4887-.3657.6157-1.1183.6277-4.48362 2.517-5.60228 3.1447-.22634.127-.50501.127-.731 0-1.11834-.6277-4.48367-2.517-5.60234-3.1447-.226-.127-.36533-.3613-.36533-.6153 0-1.25535 0-5.03368 0-6.28902 0-.254.13933-.48866.36566-.61566 1.118-.62767 4.484-2.517 5.60201-3.14467z" fill="#293693"/><path d="m1.76808 11.468c-.08867-.1187-.10133-.2314-.10133-.383 0-1.24803 0-5.00469 0-6.25303 0-.25267.139-.486.36466-.612 1.11434-.624 4.46834-2.50233 5.58267-3.12666.22567-.126338.53133-.123672.757.00266 1.11433.624 4.45702 2.48633 5.57132 3.11034.09.05066.1587.11166.22.19199z" fill="#5d6cbf"/><path d="m7.99992 3.33325c2.57568 0 4.66668 2.091 4.66668 4.66667 0 2.57568-2.091 4.66668-4.66668 4.66668-2.57567 0-4.66667-2.091-4.66667-4.66668 0-2.57567 2.091-4.66667 4.66667-4.66667zm.00001 2.33333c1.28767 0 2.33337 1.04533 2.33337 2.33333 0 1.28767-1.0457 2.33329-2.33337 2.33329s-2.33333-1.04562-2.33333-2.33329c0-1.288 1.04533-2.33333 2.33333-2.33333z" fill="#fff"/><path d="m14.1616 4.40161c.172.161.1687.40367.1687.59467 0 1.265-.0107 4.863.003 6.12802.0013.132-.0424.271-.1077.3756l-6.36134-3.49996z" fill="#3949aa"/></g></g><g transform="translate(22 4)"><path d="m0 0h16v16h-16z" fill="none"/><g clip-path="url(#b)" fill-rule="evenodd"><path d="m7.63442 1.09525c.22633-.127.50499-.127.731 0 1.11833.62767 4.48368 2.517 5.60228 3.14467.2264.12666.3657.36133.3657.61533v6.28895c0 .254-.1393.4887-.3657.6157-1.1183.6277-4.48362 2.517-5.60228 3.1447-.22634.127-.50501.127-.731 0-1.11834-.6277-4.48367-2.517-5.60234-3.1447-.226-.127-.36533-.3613-.36533-.6153 0-1.25535 0-5.03368 0-6.28902 0-.254.13933-.48866.36566-.61566 1.118-.62767 4.484-2.517 5.60201-3.14467z" fill="#00549d"/><path d="m1.76808 11.468c-.08867-.1187-.10133-.2314-.10133-.383 0-1.24803 0-5.00469 0-6.25303 0-.25267.139-.486.36466-.612 1.11434-.624 4.46834-2.50233 5.58267-3.12666.22567-.126338.53133-.123672.757.00266 1.11433.624 4.45702 2.48633 5.57132 3.11034.09.05066.1587.11166.22.19199z" fill="#0086d4"/><path d="m7.99992 3.33325c2.57568 0 4.66668 2.091 4.66668 4.66667 0 2.57568-2.091 4.66668-4.66668 4.66668-2.57567 0-4.66667-2.091-4.66667-4.66668 0-2.57567 2.091-4.66667 4.66667-4.66667zm.00001 2.33333c1.28767 0 2.33337 1.04533 2.33337 2.33333 0 1.28767-1.0457 2.33329-2.33337 2.33329s-2.33333-1.04562-2.33333-2.33329c0-1.288 1.04533-2.33333 2.33333-2.33333z" fill="#fff"/><path d="m14.1616 4.40161c.172.161.1687.40367.1687.59467 0 1.265-.0107 4.863.003 6.12802.0013.132-.0424.271-.1077.3756l-6.36134-3.49996z" fill="#0075c0"/><g fill="#fff"><path d="m10.3333 7h.6666v2h-.6666zm2.3333 0h.6667v2h-.6667z"/><path d="m9.66675 7.66675h1.99995v.66667h-1.99995zm2.33335 0h2v.66667h-2z"/></g></g></g></svg>

<?xml version="1.0" encoding="utf-8"?>
<svg width="82px" height="24px" viewBox="0 0 82 24" version="1.1" xmlns:xlink="http://www.w3.org/1999/xlink" xmlns="http://www.w3.org/2000/svg">
  <defs>
    <linearGradient x1="0" y1="0" x2="1" y2="1" id="gradient_1">
      <stop offset="0%" stop-color="#09B1FF" />
      <stop offset="100%" stop-color="#1548C0" />
    </linearGradient>
    <path d="M0 0L16 0L16 16L0 16L0 0Z" id="path_1" />
    <clipPath id="mask_1">
      <use xlink:href="#path_1" />
    </clipPath>
  </defs>
  <g id="Group-49">
    <g id="Group-46-Copy-2">
      <path d="M5.999 0L76.001 0Q76.1483 0 76.2954 0.00722606Q76.4424 0.0144521 76.589 0.0288868Q76.7356 0.0433215 76.8812 0.0649301Q77.0269 0.0865387 77.1713 0.115269Q77.3158 0.143999 77.4586 0.179782Q77.6015 0.215565 77.7424 0.258315Q77.8833 0.301064 78.022 0.350677Q78.1607 0.40029 78.2967 0.456647Q78.4328 0.513003 78.5659 0.575968Q78.699 0.638933 78.8289 0.708354Q78.9588 0.777776 79.0851 0.853486Q79.2114 0.929196 79.3338 1.01101Q79.4563 1.09283 79.5746 1.18056Q79.6929 1.26828 79.8067 1.36171Q79.9206 1.45514 80.0297 1.55403Q80.1388 1.65293 80.2429 1.75707Q80.347 1.8612 80.446 1.97032Q80.5449 2.07944 80.6383 2.19327Q80.7317 2.30711 80.8194 2.4254Q80.9072 2.54369 80.989 2.66613Q81.0708 2.78858 81.1465 2.9149Q81.2222 3.04121 81.2916 3.17109Q81.3611 3.30097 81.424 3.4341Q81.487 3.56722 81.5433 3.70328Q81.5997 3.83934 81.6493 3.978Q81.6989 4.11666 81.7417 4.25758Q81.7844 4.39851 81.8202 4.54136Q81.856 4.68422 81.8847 4.82865Q81.9135 4.97309 81.9351 5.11876Q81.9567 5.26444 81.9711 5.411Q81.9855 5.55755 81.9928 5.70464Q82 5.85173 82 5.999L82 18.001Q82 18.1483 81.9928 18.2954Q81.9855 18.4424 81.9711 18.589Q81.9567 18.7356 81.9351 18.8812Q81.9135 19.0269 81.8847 19.1713Q81.856 19.3158 81.8202 19.4586Q81.7844 19.6015 81.7417 19.7424Q81.6989 19.8833 81.6493 20.022Q81.5997 20.1607 81.5433 20.2967Q81.487 20.4328 81.424 20.5659Q81.3611 20.699 81.2916 20.8289Q81.2222 20.9588 81.1465 21.0851Q81.0708 21.2114 80.989 21.3339Q80.9072 21.4563 80.8194 21.5746Q80.7317 21.6929 80.6383 21.8067Q80.5449 21.9206 80.446 22.0297Q80.3471 22.1388 80.2429 22.2429Q80.1388 22.3471 80.0297 22.446Q79.9206 22.5449 79.8067 22.6383Q79.6929 22.7317 79.5746 22.8194Q79.4563 22.9072 79.3339 22.989Q79.2114 23.0708 79.0851 23.1465Q78.9588 23.2222 78.8289 23.2916Q78.699 23.3611 78.5659 23.424Q78.4328 23.487 78.2967 23.5433Q78.1607 23.5997 78.022 23.6493Q77.8833 23.6989 77.7424 23.7417Q77.6015 23.7844 77.4586 23.8202Q77.3158 23.856 77.1713 23.8847Q77.0269 23.9135 76.8812 23.9351Q76.7356 23.9567 76.589 23.9711Q76.4424 23.9855 76.2954 23.9928Q76.1483 24 76.001 24L5.999 24Q5.85173 24 5.70464 23.9928Q5.55755 23.9855 5.411 23.9711Q5.26444 23.9567 5.11876 23.9351Q4.97309 23.9135 4.82865 23.8847Q4.68422 23.856 4.54136 23.8202Q4.39851 23.7844 4.25758 23.7417Q4.11666 23.6989 3.978 23.6493Q3.83934 23.5997 3.70328 23.5433Q3.56722 23.487 3.4341 23.424Q3.30097 23.3611 3.17109 23.2916Q3.04121 23.2222 2.9149 23.1465Q2.78858 23.0708 2.66613 22.989Q2.54369 22.9072 2.4254 22.8194Q2.30711 22.7317 2.19327 22.6383Q2.07944 22.5449 1.97032 22.446Q1.8612 22.3471 1.75707 22.2429Q1.65293 22.1388 1.55403 22.0297Q1.45514 21.9206 1.36171 21.8067Q1.26829 21.6929 1.18056 21.5746Q1.09283 21.4563 1.01101 21.3339Q0.929196 21.2114 0.853486 21.0851Q0.777776 20.9588 0.708354 20.8289Q0.638933 20.699 0.575968 20.5659Q0.513003 20.4328 0.456647 20.2967Q0.40029 20.1607 0.350677 20.022Q0.301064 19.8833 0.258315 19.7424Q0.215565 19.6015 0.179782 19.4586Q0.143999 19.3158 0.115269 19.1713Q0.0865387 19.0269 0.0649301 18.8812Q0.0433215 18.7356 0.0288868 18.589Q0.0144521 18.4424 0.00722606 18.2954Q0 18.1483 0 18.001L0 5.999Q0 5.85173 0.00722606 5.70464Q0.0144521 5.55755 0.0288868 5.411Q0.0433215 5.26444 0.0649301 5.11876Q0.0865387 4.97309 0.115269 4.82865Q0.143999 4.68422 0.179782 4.54136Q0.215565 4.39851 0.258315 4.25758Q0.301064 4.11666 0.350677 3.978Q0.40029 3.83934 0.456647 3.70328Q0.513003 3.56722 0.575968 3.4341Q0.638933 3.30097 0.708354 3.17109Q0.777776 3.04121 0.853486 2.9149Q0.929196 2.78858 1.01101 2.66613Q1.09283 2.54369 1.18056 2.4254Q1.26828 2.30711 1.36171 2.19327Q1.45514 2.07944 1.55403 1.97032Q1.65293 1.8612 1.75707 1.75707Q1.8612 1.65293 1.97032 1.55403Q2.07944 1.45514 2.19327 1.36171Q2.30711 1.26829 2.4254 1.18056Q2.54369 1.09283 2.66613 1.01101Q2.78858 0.929196 2.9149 0.853486Q3.04121 0.777776 3.17109 0.708354Q3.30097 0.638933 3.4341 0.575968Q3.56722 0.513003 3.70328 0.456647Q3.83934 0.40029 3.978 0.350677Q4.11666 0.301064 4.25758 0.258315Q4.39851 0.215565 4.54136 0.179782Q4.68422 0.143999 4.82865 0.115269Q4.97309 0.0865387 5.11876 0.0649301Q5.26444 0.0433215 5.411 0.0288868Q5.55755 0.0144521 5.70464 0.00722606Q5.85173 0 5.999 0Z" id="Rectangle" fill="url(#gradient_1)" fill-rule="evenodd" stroke="none" />
      <path d="M5.999 2L36.001 2Q36.1975 2 36.393 2.01926Q36.5885 2.03851 36.7812 2.07684Q36.9739 2.11517 37.1618 2.1722Q37.3498 2.22922 37.5313 2.30441Q37.7128 2.37959 37.8861 2.4722Q38.0594 2.56481 38.2227 2.67395Q38.3861 2.7831 38.5379 2.90773Q38.6898 3.03236 38.8287 3.17128Q38.9676 3.3102 39.0923 3.46206Q39.2169 3.61393 39.326 3.77727Q39.4352 3.94062 39.5278 4.11388Q39.6204 4.28715 39.6956 4.46865Q39.7708 4.65015 39.8278 4.83815Q39.8848 5.02615 39.9232 5.21883Q39.9615 5.41152 39.9807 5.60703Q40 5.80254 40 5.999L40 18.001Q40 18.1975 39.9807 18.393Q39.9615 18.5885 39.9232 18.7812Q39.8848 18.9739 39.8278 19.1618Q39.7708 19.3498 39.6956 19.5314Q39.6204 19.7129 39.5278 19.8861Q39.4352 20.0594 39.326 20.2227Q39.2169 20.3861 39.0923 20.5379Q38.9676 20.6898 38.8287 20.8287Q38.6898 20.9676 38.5379 21.0923Q38.3861 21.2169 38.2227 21.326Q38.0594 21.4352 37.8861 21.5278Q37.7128 21.6204 37.5313 21.6956Q37.3498 21.7708 37.1618 21.8278Q36.9739 21.8848 36.7812 21.9232Q36.5885 21.9615 36.393 21.9807Q36.1975 22 36.001 22L5.999 22Q5.80254 22 5.60703 21.9807Q5.41152 21.9615 5.21883 21.9232Q5.02615 21.8848 4.83815 21.8278Q4.65015 21.7708 4.46865 21.6956Q4.28715 21.6204 4.11388 21.5278Q3.94062 21.4352 3.77727 21.326Q3.61393 21.2169 3.46206 21.0923Q3.3102 20.9676 3.17128 20.8287Q3.03236 20.6898 2.90773 20.5379Q2.7831 20.3861 2.67395 20.2227Q2.56481 20.0594 2.4722 19.8861Q2.37959 19.7129 2.30441 19.5314Q2.22922 19.3498 2.1722 19.1618Q2.11517 18.9739 2.07684 18.7812Q2.03851 18.5885 2.01926 18.393Q2 18.1975 2 18.001L2 5.999Q2 5.80254 2.01926 5.60703Q2.03851 5.41152 2.07684 5.21883Q2.11517 5.02615 2.1722 4.83815Q2.22922 4.65015 2.30441 4.46865Q2.37959 4.28715 2.4722 4.11388Q2.56481 3.94062 2.67395 3.77727Q2.7831 3.61393 2.90773 3.46206Q3.03236 3.3102 3.17128 3.17128Q3.3102 3.03236 3.46206 2.90773Q3.61393 2.7831 3.77727 2.67395Q3.94062 2.56481 4.11388 2.4722Q4.28715 2.37959 4.46865 2.30441Q4.65015 2.22922 4.83815 2.1722Q5.02615 2.11517 5.21883 2.07684Q5.41152 2.03851 5.60703 2.01926Q5.80254 2 5.999 2Z" id="Rectangle-2" fill="#FFFFFF" fill-rule="evenodd" stroke="none" />
      <g id="C,-C++" fill="#FFFFFF" transform="translate(44 6)">
        <path d="M6.83949 4.72869L5.73153 4.72869Q5.59659 4.02202 5.06925 3.64382Q4.5419 3.26562 3.84588 3.26562Q3.22088 3.26562 2.72372 3.58168Q2.22656 3.89773 1.9407 4.50675Q1.65483 5.11577 1.65483 6Q1.65483 6.88778 1.94247 7.49858Q2.23011 8.10938 2.7255 8.42188Q3.22088 8.73438 3.84233 8.73438Q4.53125 8.73438 5.06037 8.36151Q5.58949 7.98864 5.73153 7.29261L6.83949 7.29616Q6.7223 8.01349 6.31392 8.56392Q5.90554 9.11435 5.26989 9.42507Q4.63423 9.7358 3.83523 9.7358Q2.89062 9.7358 2.15199 9.28658Q1.41335 8.83736 0.988991 7.99929Q0.564631 7.16122 0.564631 6Q0.564631 4.83523 0.990767 3.99894Q1.4169 3.16264 2.15554 2.71342Q2.89418 2.2642 3.83523 2.2642Q4.60582 2.2642 5.2397 2.5554Q5.87358 2.84659 6.29439 3.39879Q6.7152 3.95099 6.83949 4.72869ZM18.6115 4.72869L19.7195 4.72869Q19.5952 3.95099 19.1744 3.39879Q18.7536 2.84659 18.1197 2.5554Q17.4858 2.2642 16.7152 2.2642Q15.7741 2.2642 15.0355 2.71342Q14.2969 3.16264 13.8707 3.99894Q13.4446 4.83523 13.4446 6Q13.4446 7.16122 13.869 7.99929Q14.2933 8.83736 15.032 9.28658Q15.7706 9.7358 16.7152 9.7358Q17.5142 9.7358 18.1499 9.42507Q18.7855 9.11435 19.1939 8.56392Q19.6023 8.01349 19.7195 7.29616L18.6115 7.29261Q18.4695 7.98864 17.9403 8.36151Q17.4112 8.73438 16.7223 8.73438Q16.1009 8.73438 15.6055 8.42188Q15.1101 8.10938 14.8224 7.49858Q14.5348 6.88778 14.5348 6Q14.5348 5.11577 14.8207 4.50675Q15.1065 3.89773 15.6037 3.58168Q16.1009 3.26562 16.7259 3.26562Q17.4219 3.26562 17.9492 3.64382Q18.4766 4.02202 18.6115 4.72869ZM23.0859 9.17472L23.0859 7.25L21.1648 7.25L21.1648 6.29474L23.0859 6.29474L23.0859 4.37358L24.0412 4.37358L24.0412 6.29474L25.9659 6.29474L25.9659 7.25L24.0412 7.25L24.0412 9.17472L23.0859 9.17472ZM29.7443 7.25L29.7443 9.17472L30.6996 9.17472L30.6996 7.25L32.6243 7.25L32.6243 6.29474L30.6996 6.29474L30.6996 4.37358L29.7443 4.37358L29.7443 6.29474L27.8232 6.29474L27.8232 7.25L29.7443 7.25ZM9.44957 8.64205L9.39631 9.02912Q9.34304 9.45526 9.21875 9.91868Q9.09446 10.3821 8.95952 10.7798Q8.82457 11.1776 8.73935 11.4119L7.98651 11.4119Q8.03622 11.1918 8.11612 10.8171Q8.19602 10.4425 8.27415 9.98082Q8.35227 9.51918 8.39134 9.03977L8.42685 8.64205L9.44957 8.64205Z" />
      </g>
    </g>
    <g id="C++-icon-2" transform="translate(4 4)">
      <path d="M0 0L16 0L16 16L0 16L0 0Z" id="Background" fill="none" fill-rule="evenodd" stroke="none" />
      <g clip-path="url(#mask_1)">
        <path d="M7.63442 1.09525C7.86075 0.96825 8.13941 0.96825 8.36542 1.09525C9.48375 1.72292 12.8491 3.61225 13.9677 4.23992C14.1941 4.36658 14.3334 4.60125 14.3334 4.85525C14.3334 6.11058 14.3334 9.88892 14.3334 11.1442C14.3334 11.3982 14.1941 11.6329 13.9677 11.7599C12.8494 12.3876 9.48408 14.2769 8.36542 14.9046C8.13908 15.0316 7.86041 15.0316 7.63442 14.9046C6.51608 14.2769 3.15075 12.3876 2.03208 11.7599C1.80608 11.6329 1.66675 11.3986 1.66675 11.1446C1.66675 9.88925 1.66675 6.11092 1.66675 4.85558C1.66675 4.60158 1.80608 4.36692 2.03241 4.23992C3.15041 3.61225 6.51641 1.72292 7.63442 1.09525L7.63442 1.09525Z" id="Shape" fill="#293693" fill-rule="evenodd" stroke="none" />
        <path d="M1.76808 11.468C1.67941 11.3493 1.66675 11.2366 1.66675 11.085C1.66675 9.83697 1.66675 6.08031 1.66675 4.83197C1.66675 4.5793 1.80575 4.34597 2.03141 4.21997C3.14575 3.59597 6.49975 1.71764 7.61408 1.09331C7.83975 0.966972 8.14541 0.969638 8.37108 1.09597C9.48541 1.71997 12.8281 3.5823 13.9424 4.20631C14.0324 4.25697 14.1011 4.31797 14.1624 4.3983L1.76808 11.468L1.76808 11.468Z" id="Shape" fill="#5D6CBF" fill-rule="evenodd" stroke="none" />
        <path d="M7.99992 3.33325C10.5756 3.33325 12.6666 5.42425 12.6666 7.99992C12.6666 10.5756 10.5756 12.6666 7.99992 12.6666C5.42425 12.6666 3.33325 10.5756 3.33325 7.99992C3.33325 5.42425 5.42425 3.33325 7.99992 3.33325L7.99992 3.33325ZM7.99993 5.66658C9.2876 5.66658 10.3333 6.71191 10.3333 7.99991C10.3333 9.28758 9.2876 10.3332 7.99993 10.3332C6.71226 10.3332 5.6666 9.28758 5.6666 7.99991C5.6666 6.71191 6.71193 5.66658 7.99993 5.66658L7.99993 5.66658Z" id="Shape" fill="#FFFFFF" fill-rule="evenodd" stroke="none" />
        <path d="M14.1616 4.40161C14.3336 4.56261 14.3303 4.80528 14.3303 4.99628C14.3303 6.26128 14.3196 9.85928 14.3333 11.1243C14.3346 11.2563 14.2909 11.3953 14.2256 11.4999L7.86426 7.99994L14.1616 4.40161L14.1616 4.40161Z" id="Shape" fill="#3949AA" fill-rule="evenodd" stroke="none" />
      </g>
    </g>
    <g id="C++-icon" transform="translate(22 4)">
      <path d="M0 0L16 0L16 16L0 16L0 0Z" id="Background" fill="none" fill-rule="evenodd" stroke="none" />
      <g clip-path="url(#mask_1)">
        <path d="M7.63442 1.09525C7.86075 0.96825 8.13941 0.96825 8.36542 1.09525C9.48375 1.72292 12.8491 3.61225 13.9677 4.23992C14.1941 4.36658 14.3334 4.60125 14.3334 4.85525C14.3334 6.11058 14.3334 9.88892 14.3334 11.1442C14.3334 11.3982 14.1941 11.6329 13.9677 11.7599C12.8494 12.3876 9.48408 14.2769 8.36542 14.9046C8.13908 15.0316 7.86041 15.0316 7.63442 14.9046C6.51608 14.2769 3.15075 12.3876 2.03208 11.7599C1.80608 11.6329 1.66675 11.3986 1.66675 11.1446C1.66675 9.88925 1.66675 6.11092 1.66675 4.85558C1.66675 4.60158 1.80608 4.36692 2.03241 4.23992C3.15041 3.61225 6.51641 1.72292 7.63442 1.09525L7.63442 1.09525Z" id="Shape" fill="#00549D" fill-rule="evenodd" stroke="none" />
        <path d="M1.76808 11.468C1.67941 11.3493 1.66675 11.2366 1.66675 11.085C1.66675 9.83697 1.66675 6.08031 1.66675 4.83197C1.66675 4.5793 1.80575 4.34597 2.03141 4.21997C3.14575 3.59597 6.49975 1.71764 7.61408 1.09331C7.83975 0.966972 8.14541 0.969638 8.37108 1.09597C9.48541 1.71997 12.8281 3.5823 13.9424 4.20631C14.0324 4.25697 14.1011 4.31797 14.1624 4.3983L1.76808 11.468L1.76808 11.468Z" id="Shape" fill="#0086D4" fill-rule="evenodd" stroke="none" />
        <path d="M7.99992 3.33325C10.5756 3.33325 12.6666 5.42425 12.6666 7.99992C12.6666 10.5756 10.5756 12.6666 7.99992 12.6666C5.42425 12.6666 3.33325 10.5756 3.33325 7.99992C3.33325 5.42425 5.42425 3.33325 7.99992 3.33325L7.99992 3.33325ZM7.99993 5.66658C9.2876 5.66658 10.3333 6.71191 10.3333 7.99991C10.3333 9.28758 9.2876 10.3332 7.99993 10.3332C6.71226 10.3332 5.6666 9.28758 5.6666 7.99991C5.6666 6.71191 6.71193 5.66658 7.99993 5.66658L7.99993 5.66658Z" id="Shape" fill="#FFFFFF" fill-rule="evenodd" stroke="none" />
        <path d="M14.1616 4.40161C14.3336 4.56261 14.3303 4.80528 14.3303 4.99628C14.3303 6.26128 14.3196 9.85928 14.3333 11.1243C14.3346 11.2563 14.2909 11.3953 14.2256 11.4999L7.86426 7.99994L14.1616 4.40161L14.1616 4.40161Z" id="Shape" fill="#0075C0" fill-rule="evenodd" stroke="none" />
        <path d="M10.3333 7L10.9999 7L10.9999 9L10.3333 9L10.3333 7ZM12.6666 7L13.3333 7L13.3333 9L12.6666 9L12.6666 7Z" id="Shape" fill="#FFFFFF" fill-rule="evenodd" stroke="none" />
        <path d="M9.66675 7.66675L11.6667 7.66675L11.6667 8.33342L9.66675 8.33342L9.66675 7.66675ZM12.0001 7.66675L14.0001 7.66675L14.0001 8.33342L12.0001 8.33342L12.0001 7.66675Z" id="Shape" fill="#FFFFFF" fill-rule="evenodd" stroke="none" />
      </g>
    </g>
  </g>
</svg>
